icon/cg/photoscan.svg

<svg viewBox="0 0 24 24" fill="none" xmlns="http://www.w3.org/2000/svg" height="1em" width="1em">
  <path d="M9 8C9.55228 8 10 7.55228 10 7C10 6.44772 9.55228 6 9 6C8.44772 6 8 6.44772 8 7C8 7.55228 8.44772 8 9 8Z" fill="currentColor"/>
  <path fill-rule="evenodd" clip-rule="evenodd" d="M17 3C18.1046 3 19 3.89543 19 5V19C19 20.1046 18.1046 21 17 21H7C5.89543 21 5 20.1046 5 19V5C5 3.89543 5.89543 3 7 3H17ZM12.4649 5H17V16H7L7 10.4649C7.58835 10.8052 8.27143 11 9 11C11.2091 11 13 9.20914 13 7C13 6.27143 12.8052 5.58835 12.4649 5ZM9 5C7.89543 5 7 5.89543 7 7C7 8.10457 7.89543 9 9 9C10.1046 9 11 8.10457 11 7C11 5.89543 10.1046 5 9 5Z" fill="currentColor"/>
</svg>

<svg width="24" height="24" fill="none" xmlns="http://www.w3.org/2000/svg"><path d="M9 8a1 1 0 1 0 0-2 1 1 0 0 0 0 2Z" fill="currentColor"/><path fill-rule="evenodd" clip-rule="evenodd" d="M17 3a2 2 0 0 1 2 2v14a2 2 0 0 1-2 2H7a2 2 0 0 1-2-2V5a2 2 0 0 1 2-2h10Zm-4.535 2H17v11H7v-5.535A4 4 0 0 0 12.465 5ZM9 5a2 2 0 1 0 0 4 2 2 0 0 0 0-4Z" fill="currentColor"/></svg>
